icons/circle/48/workspace-overview.svg

<svg viewBox="0 0 48 48" xmlns="http://www.w3.org/2000/svg">
 <defs>
  <linearGradient id="linearGradient3126" x1="1" x2="47" gradientTransform="matrix(0 -1 1 0 -1.5e-6 48)" gradientUnits="userSpaceOnUse">
   <stop style="stop-color:#63bdf1" offset="0"/>
   <stop style="stop-color:#75c5f3" offset="1"/>
  </linearGradient>
 </defs>
 <path d="m36.31 5c5.859 4.062 9.688 10.831 9.688 18.5 0 12.426-10.07 22.5-22.5 22.5-7.669 0-14.438-3.828-18.5-9.688 1.037 1.822 2.306 3.499 3.781 4.969 4.085 3.712 9.514 5.969 15.469 5.969 12.703 0 23-10.298 23-23 0-5.954-2.256-11.384-5.969-15.469-1.469-1.475-3.147-2.744-4.969-3.781zm4.969 3.781c3.854 4.113 6.219 9.637 6.219 15.719 0 12.703-10.297 23-23 23-6.081 0-11.606-2.364-15.719-6.219 4.16 4.144 9.883 6.719 16.219 6.719 12.703 0 23-10.298 23-23 0-6.335-2.575-12.06-6.719-16.219z" style="opacity:.05"/>
 <path d="m41.28 8.781c3.712 4.085 5.969 9.514 5.969 15.469 0 12.703-10.297 23-23 23-5.954 0-11.384-2.256-15.469-5.969 4.113 3.854 9.637 6.219 15.719 6.219 12.703 0 23-10.298 23-23 0-6.081-2.364-11.606-6.219-15.719z" style="opacity:.1"/>
 <path d="m31.25 2.375c8.615 3.154 14.75 11.417 14.75 21.13 0 12.426-10.07 22.5-22.5 22.5-9.708 0-17.971-6.135-21.12-14.75a23 23 0 0 0 44.875-7 23 23 0 0 0-16-21.875z" style="opacity:.2"/>
 <path d="m24 1c-12.703 0-23 10.297-23 23 0 2.441 0.389 4.793 1.094 7h43.813c0.704-2.207 1.094-4.559 1.094-7 0-12.703-10.297-23-23-23z" style="fill:url(#linearGradient3126)"/>
 <path d="m12.77 21h4.457c0.98 0 1.773 0.793 1.773 1.77v4.457c0 0.98-0.793 1.773-1.773 1.773h-4.457c-0.977 0-1.77-0.793-1.77-1.773v-4.457c0-0.977 0.793-1.77 1.77-1.77" style="opacity:.1"/>
 <path d="m22.77 21h4.457c0.98 0 1.773 0.793 1.773 1.77v4.457c0 0.98-0.793 1.773-1.773 1.773h-4.457c-0.977 0-1.77-0.793-1.77-1.773v-4.457c0-0.977 0.793-1.77 1.77-1.77" style="opacity:.1"/>
 <path d="m32.773 21h4.457c0.977 0 1.773 0.793 1.773 1.77v4.457c0 0.98-0.797 1.773-1.773 1.773h-4.457c-0.98 0-1.773-0.793-1.773-1.773v-4.457c0-0.977 0.793-1.77 1.773-1.77" style="opacity:.1"/>
 <path d="m2.094 31c2.962 9.28 11.644 16 21.906 16s18.945-6.72 21.906-16h-43.813z" style="fill-rule:evenodd;fill:#2d2d2d"/>
 <path d="m11.77 20h4.457c0.98 0 1.773 0.793 1.773 1.77v4.457c0 0.98-0.793 1.773-1.773 1.773h-4.457c-0.977 0-1.77-0.793-1.77-1.773v-4.457c0-0.977 0.793-1.77 1.77-1.77" style="fill:#f9f9f9"/>
 <path d="m21.77 20h4.457c0.98 0 1.773 0.793 1.773 1.77v4.457c0 0.98-0.793 1.773-1.773 1.773h-4.457c-0.977 0-1.77-0.793-1.77-1.773v-4.457c0-0.977 0.793-1.77 1.77-1.77" style="fill:#f9f9f9"/>
 <path d="m31.773 20h4.457c0.977 0 1.773 0.793 1.773 1.77v4.457c0 0.98-0.797 1.773-1.773 1.773h-4.457c-0.98 0-1.773-0.793-1.773-1.773v-4.457c0-0.977 0.793-1.77 1.773-1.77" style="fill:#f9f9f9"/>
 <path d="m24 35h1.996v3h3v1.996h-3v3h-1.996v-3h-3v-1.996h3m0-3" style="opacity:.1"/>
 <path d="m23 34h1.996v3h3v1.996h-3v3h-1.996v-3h-3v-1.996h3m0-3" style="fill:#f9f9f9"/>
 <path d="m40.03 7.531c3.712 4.084 5.969 9.514 5.969 15.469 0 12.703-10.297 23-23 23-5.954 0-11.384-2.256-15.469-5.969 4.178 4.291 10.01 6.969 16.469 6.969 12.703 0 23-10.298 23-23 0-6.462-2.677-12.291-6.969-16.469z" style="opacity:.1"/>
</svg>

<svg xmlns="http://www.w3.org/2000/svg" viewBox="0 0 48 48">
 <defs>
  <linearGradient id="linearGradient3126" gradientUnits="userSpaceOnUse" gradientTransform="matrix(0,-1,1,0,-1.5e-6,47.999998)" x1="1" x2="47">
   <stop style="stop-color:#63bdf1;stop-opacity:1"/>
   <stop offset="1" style="stop-color:#75c5f3;stop-opacity:1"/>
  </linearGradient>
 </defs>
 <g>
  <path d="m 36.31 5 c 5.859 4.062 9.688 10.831 9.688 18.5 c 0 12.426 -10.07 22.5 -22.5 22.5 c -7.669 0 -14.438 -3.828 -18.5 -9.688 c 1.037 1.822 2.306 3.499 3.781 4.969 c 4.085 3.712 9.514 5.969 15.469 5.969 c 12.703 0 23 -10.298 23 -23 c 0 -5.954 -2.256 -11.384 -5.969 -15.469 c -1.469 -1.475 -3.147 -2.744 -4.969 -3.781 z m 4.969 3.781 c 3.854 4.113 6.219 9.637 6.219 15.719 c 0 12.703 -10.297 23 -23 23 c -6.081 0 -11.606 -2.364 -15.719 -6.219 c 4.16 4.144 9.883 6.719 16.219 6.719 c 12.703 0 23 -10.298 23 -23 c 0 -6.335 -2.575 -12.06 -6.719 -16.219 z" style="opacity:0.05"/>
  <path d="m 41.28 8.781 c 3.712 4.085 5.969 9.514 5.969 15.469 c 0 12.703 -10.297 23 -23 23 c -5.954 0 -11.384 -2.256 -15.469 -5.969 c 4.113 3.854 9.637 6.219 15.719 6.219 c 12.703 0 23 -10.298 23 -23 c 0 -6.081 -2.364 -11.606 -6.219 -15.719 z" style="opacity:0.1"/>
  <path d="m 31.25 2.375 c 8.615 3.154 14.75 11.417 14.75 21.13 c 0 12.426 -10.07 22.5 -22.5 22.5 c -9.708 0 -17.971 -6.135 -21.12 -14.75 a 23 23 0 0 0 44.875 -7 a 23 23 0 0 0 -16 -21.875 z" style="opacity:0.2"/>
 </g>
 <path d="m 24 1 c -12.703 0 -23 10.297 -23 23 c 0 2.441 0.389 4.793 1.094 7 l 43.813 0 c 0.704 -2.207 1.094 -4.559 1.094 -7 0 -12.703 -10.297 -23 -23 -23 z" style="fill:url(#linearGradient3126);fill-opacity:1"/>
 <path d="m 12.77,21 4.457,0 C 18.207,21 19,21.793 19,22.77 l 0,4.457 C 19,28.207 18.207,29 17.227,29 L 12.77,29 C 11.793,29 11,28.207 11,27.227 L 11,22.77 C 11,21.793 11.793,21 12.77,21 m 0,0" style="fill:#000;opacity:0.1;fill-opacity:1;stroke:none;fill-rule:nonzero"/>
 <path d="m 22.77,21 4.457,0 C 28.207,21 29,21.793 29,22.77 l 0,4.457 C 29,28.207 28.207,29 27.227,29 L 22.77,29 C 21.793,29 21,28.207 21,27.227 L 21,22.77 C 21,21.793 21.793,21 22.77,21 m 0,0" style="fill:#000;opacity:0.1;fill-opacity:1;stroke:none;fill-rule:nonzero"/>
 <path d="m 32.773,21 4.457,0 c 0.977,0 1.773,0.793 1.773,1.77 l 0,4.457 c 0,0.98 -0.797,1.773 -1.773,1.773 l -4.457,0 C 31.793,29 31,28.207 31,27.227 L 31,22.77 C 31,21.793 31.793,21 32.773,21 m 0,0" style="fill:#000;opacity:0.1;fill-opacity:1;stroke:none;fill-rule:nonzero"/>
 <path d="M 2.094,31 C 5.056,40.28 13.738,47 24,47 34.262,47 42.945,40.28 45.906,31 L 2.093,31 Z" style="fill:#2d2d2d;fill-opacity:1;stroke:none;fill-rule:evenodd"/>
 <path d="m 11.77,20 4.457,0 C 17.207,20 18,20.793 18,21.77 l 0,4.457 C 18,27.207 17.207,28 16.227,28 L 11.77,28 C 10.793,28 10,27.207 10,26.227 L 10,21.77 C 10,20.793 10.793,20 11.77,20 m 0,0" style="fill:#f9f9f9;fill-opacity:1;stroke:none;fill-rule:nonzero"/>
 <path d="m 21.77,20 4.457,0 C 27.207,20 28,20.793 28,21.77 l 0,4.457 C 28,27.207 27.207,28 26.227,28 L 21.77,28 C 20.793,28 20,27.207 20,26.227 L 20,21.77 C 20,20.793 20.793,20 21.77,20 m 0,0" style="fill:#f9f9f9;fill-opacity:1;stroke:none;fill-rule:nonzero"/>
 <path d="m 31.773,20 4.457,0 c 0.977,0 1.773,0.793 1.773,1.77 l 0,4.457 c 0,0.98 -0.797,1.773 -1.773,1.773 l -4.457,0 C 30.793,28 30,27.207 30,26.227 L 30,21.77 C 30,20.793 30.793,20 31.773,20 m 0,0" style="fill:#f9f9f9;fill-opacity:1;stroke:none;fill-rule:nonzero"/>
 <path d="m 24 35 1.996 0 0 3 3 0 0 1.996 -3 0 0 3 -1.996 0 0 -3 -3 0 0 -1.996 3 0 m 0 -3" style="fill:#000;opacity:0.1;fill-opacity:1;stroke:none;fill-rule:nonzero"/>
 <path d="m 23 34 1.996 0 0 3 3 0 0 1.996 -3 0 0 3 -1.996 0 0 -3 -3 0 0 -1.996 3 0 m 0 -3" style="fill:#f9f9f9;fill-opacity:1;stroke:none;fill-rule:nonzero"/>
 <g>
  <path d="m 40.03 7.531 c 3.712 4.084 5.969 9.514 5.969 15.469 0 12.703 -10.297 23 -23 23 c -5.954 0 -11.384 -2.256 -15.469 -5.969 4.178 4.291 10.01 6.969 16.469 6.969 c 12.703 0 23 -10.298 23 -23 0 -6.462 -2.677 -12.291 -6.969 -16.469 z" style="opacity:0.1"/>
 </g>
</svg>
